X:1
T:Le cueur loyal
T:L'Huyllier
T:Source : Livre XII de 30 chansons nouvelles à 4 parties---Paris---P.Attaingnant---1543. Editor : André Vierendeels (16/06/18) Notes : Original clefs : G2, C2, C4, F3 Original note values have been halved Original note values have been quartered in 3-beat measures Editorial accidentals above tha staff Square brackets indicate ligatures Dotted brackets indicate black notes
T:Le cueur loyal
T:©
T:©
T:©
C:L'Huyllier
Z:©
%%score [ 1 2 3 4 ]
L:1/8
Q:1/4=120
M:2/2
K:F
V:1 treble nm="Soprano" snm="S"
V:2 treble nm="Alto" snm="A"
V:3 treble-8 nm="Tenor 1" snm="T 1"
V:4 treble-8 nm="Tenor 2" snm="T 2"
V:1
 B4 A2 G2 | d4 z2 e2 | f2 f2 e2 d2- | d2 c2 d4- | d4 z2 A2 | B2 c4 B2- | B2 A2 B2 B2 | A2 G2 F4 | %8
w: Le cueur loy-|al en|a- mour est de-|* * ceu,|_ en|a- mour est|_ de- ceu, car|mieulx il sert|
w: Le des- loy-|al est|le tres bien re-|* * ceu,|_ est|le tres bien|_ de- ceu, car|moins il sert|
 A6 d2- | d2 B2 G2 G2 | c4 A2 A2 | d2 d2 B2 G2 | c3 B A2 G2- | G2 F2 G4 :| d8 | d4 c2 c2 | d8 | %17
w: moins, on|_ le re- com-|pen- se moins,|on le re- com-|pen- * * *|* * se,|ha|ha Cu- pi-|do|
w: et tant|_ plus on l'a-|van- c'et tant|plus on l'a- van-||* * ce,||||
 z4 g4 | f2 f2 e2 dc | d4 z2 d2 | f2 f2 e2 c2 | e4 d4 | z2 d2 c2 c2 | fedc B3 c | d4 z2 e2 | %25
w: ha|Cu- pi- do, _ _|_ là|mon- strez vo- str'en-|fan- ce,|d'es- tre du|bien _ _ _ _ _|_ si|
w: ||||||||
 d2 c4 B2- | B2 AG A2 A2 | B4 z4 | z4 B4 | c2 c2 d4- | d2 cB A2 c2 | B2 A4 G2- |[M:2/4] G2 F2 | %33
w: fol dis- pen|_ _ _ _ sa-|teur,|pro-|di- gu'en- fant|_ _ _ _ vous|au- rez ung|_ tu-|
w: ||||||||
[M:3/4] G4 z2 |: G2 A2 A2 | B4 c2 | B2 A3 G | G4 F2 | G6 :| %39
w: teur,|pro- di- gu'en-|fant, vous|au- * rez|ung tu-|teur.|
w: ||||||
V:2
 G4 F2 E2 | D3 E F2 G2 | A4 z2 D2 | A2 A2 F2 F2 | B2 B2 A3 G | F2 G3 FDE | F4 D4 | z2 D2 D2 D2 | %8
w: Le cueur loy-|al _ _ _|_ le|cueur loy- al en|a- mour est _|_ de- * * *|* ceu,|car mieulx il|
w: Le des- loy-|al, _ _ _|_ le|des- loy- al est|le tres bien _|_ re- * * *|* ceu,|car moins il|
 F8 | z2 D4 G2- | G2 E2 C2 C2 | F2 D2 z D G2- | G2 G2 F2 E2 | D4 B,4 :| G4 B4 | F2 G2 A3 G | %16
w: sert,|moins on|_ le re- com-|pen- se, moins on|_ le re- com-|pen- se,|ha _|Cu- pi- do, _|
w: sert,|tant plus|_ on l'a- van-|* ce, et tant|plus on l'a- van-|* ce,|||
 F4 D4- | D4 C2 C2 | D4 z2 E2 | G2 G2 F3 E | D4 C4 | z4 z2 D2 | DEFG A2 A2 | F2 F2 G3 A | %24
w: _ ha|_ Cu- pi-|do, là|mon- strez vo- str'en-|fan- ce,|d'es-|tre _ _ _ _ du|bien si fol _|
w: ||||||||
 B2 B2 G2 G2 | F2 G2 F2 D2 | F6 F2 | D4 z4 | F4 G2 G2 | A2 A2 B3 A | G2 G2 E4 | z2 F2 D2 E2 | %32
w: _ dis- pen- sa-|teur, si fol sis-|pen- sa-|teur,|pro- di- gu'en-|fant, vous au- rez|und tu- teur,|vous au- rez|
w: ||||||||
[M:2/4] D2 D2 |[M:3/4] B,4 z2 |: D2 F2 E2 | G4 G2 | G2 E2 F2 | D3 C D2 | B,6 :| %39
w: ung tu-|teur,|pro- di- gu'en-|fant, vous|au- rez ung|tu- * *|teur.|
w: |||||||
V:3
 z8 | B4 A2 G2 | d4 g4 | f2 e2 d4 | z2 d2 f2 c2 | d2 e2 d2 cB | c4 B2 d2 | c2 B2 A4 | z2 A2 d4- | %9
w: |Le cueur loy-|al, le|cueur loy- al|en a- mour|est de- ceu, _ _|_ _ car|mieulx il sert,|moins on|
w: |Le des- loy-|al, le|des- loy- al|est le tres|bien re- ceu, _ _|_ _ car|moins il sert,|et tant|
 d2 d2 B4 | G2 c3 BAG | A4 z2 B2 | e3 d c2 B2 | A4 G4 :| z4 g4 | d4 f2 e2 | d4 B4 | A2 A2 G2 G2 | %18
w: _ le re-|com- pen- * * *|se, moins|on le re- com-|pen- se,|ha|ha Cu- pi-|do ha|Cu- pi- do, là|
w: _ plus on|l'a- van- * * *|ce, et|tant plus on l'a-|van- ce,|||||
 AGAB c2 c2 | B2 G2 B4 | A4 z4 | z2 e2 g2 g2 | f2 d2 f2 e2 | d4 z2 d2 | B4 c4 | A2 G2 A2 B2 | %26
w: mon- * * * * trez|vo- str'en- fan-|ce,|là mon- strez|vo- str'en- fan- *|ce, d'es-|tre du|bien si fol dis-|
w: ||||||||
 c6 c2 | B2 B2 c2 c2 | d6 cB | A4 z4 | B4 c2 c2 | d3 c B2 c2 |[M:2/4] A2 A2 |[M:3/4] G4 z2 |: %34
w: pen- sa-|teur, pro- di- gu'en-|fant, _ _|_|pro- di- gu'en-|fant vous au- rez|ung tu-|teur,|
w: ||||||||
 B2 c2 c2 | d4 e2 | d2 c3 B | AG A2 A2 | G6 :| %39
w: pro- di- gu'en-|fant, vous|au- rez _|_ _ ung tu-|teur.|
w: |||||
V:4
 z8 | G4 F2 E2 | D2 d2 c2 B2 | A2 A2 B3 A | G2 G2 F3 E | D2 C2 G4 | F4 z2 B,2 | F2 G2 D4- | %8
w: |Le cueur loy-|al, le cueur loy-|al en a- mour|est de- ceu, _|_ _ _|* car|mieulx il sert,|
w: |Le des- loy-|al, le des- loy-|al est le tres|bien re- ceu, _|_ _ _|* car|moins il sert,|
 D4 z2 D2 | G6 G2 | E2 C2 F4 | D2 D2 G2 G2 | E2 C2 F2 G2 | D4 G4 :| G8 | B4 A2 A2 | D2 D2 G2 G2 | %17
w: _ moins|on le|re- com- pen-|se, moins on le|re- com- pen- *|* se,|ha|ha Cu- pi-|do, là mon- strez|
w: _ et|tant plus|on l'a- van-|ce, et tant plus|on l'a- van- *|* ce,||||
 F2 D2 E4 | DEFG A4 | G4 z4 | D4 AGAB | c2 c2 B2 G2 | B4 A4 | D4 z2 G2 | G2 G2 E2 C2 | %25
w: vo- str'en- fan-||ce,|là mon- * * *|* strez vo- str'en-|fan- *|ce, d'es-|tre du bien si|
w: ||||||||
 D2 E2 F2 G2 | F6 F2 | G2 G2 A2 A2 |"^#" B3 A G2 G2 | F2 A2 G4- | G4 z2 C2 | G2 F2 G2 C2 | %32
w: fol dis- pen- sa-|teur, pro-|di- gu'en- fant vous|au- rez ung tu-|* * teur,|_ vous|au- rez ung tu-|
w: |||||||
[M:2/4] D4 |[M:3/4]"^#" G4 z2 |: G2 F2 A2 | G4 C2 | G2 A2 F2 | G2 D4 | G6 :| %39
w: teur,|_|pro- di- gu'en-|fant, vous|au- rez ung|tu- *|teur.|
w: |||||||

